!!!OTL: Das hungernde Kind 'Mamma, ich will Prot!'
!!!ARE: Europa, Osteuropa, UdSSR, Wolgakolonien, Rothammel
!!!YOR: 5, S. 275
!!    1958 aufgezeichnet
!!!SCT: Q0115B
!!!YEM: Copyright 1995, estate of Helmut Schaffrath.
**kern
*ICvox
*Ivox
*M2/4
*k[f#]
*G:
=1
{8dd
8dd
8cc
8dd
=2
4b
4r}
=3
{8ee
8ee
4ee
=4
8dd
8dd
4dd}
=5
{8dd
8cc
8cc
8dd
=6
8b
8b
4b}
=7
{8g
8g
8b
8b
=8
4dd
4dd}
=9
{8dd
8cc
8cc
8dd
=10
8b
8b
4b}
==
!!!AGN: Ballade, Hunger, Tod
!! Kleinere Melodieverianten (Strophenvarianten ?) abgedruckt.
!!    Mehrere Verzierungen (Glissandi) .
!!!ONB: ESAC (Essen Associative Code) Database: BALLADE
!!!AMT: simple duple
!!!AIN: vox
!!!EED: Helmut Schaffrath
!!!EEV: 1.0
*-
